X: 263
T: Ben Sözüne Bağlamam Bel
C: Numan Ağa
O: Turkey
F: http://compmusic.upf.edu/node/140
N: hicazkar--sarki--sofyan--ben_sozune--numan_aga
N: makam= hicazkar
N: form= sarki
N: usul= sofyan = 4/4
M: 4/4
L: 1/16
K: C _1/4B _7/8e _7/8A ^f
Q: 1/4=66
%%MIDI tuningsystem comma53
.d.d.d.d .B.B.B.B .G.G.G.G .d.d.d.d  | \
w:  ARANAĞME  | 
efed e2f2 gfed cBAG  | 
w:   | 
.d.d.d.d .B.B.B.B GABc d3g  | fedc BAAG G8  | 
w:   |   | 
.d.d.d.d .B.B.B.B .G.G.G.G .d.d.d.d  | \
w:  ARANAĞME  | 
efed e2f2 gfed cBAG  | 
w:   | 
.d.d.d.d .B.B.B.B GABc d3g  | fedc BAAG G8  | 
w:   |   | 
d4 e2f2 g6z2  | =a3g _bagf g3a gfed  | \
w:  Ben  sö zü ne   |  bağ *  la *  mam  *  bel    | 
d4 e2f2 g6z2  | 
w:  Ben  sö zü ne   | 
=a3g _bagf g4 z2g2  | gbba aggf gfed c2de  | 
w:  bağ *  la *  mam  *  bel   Pek   |  bî *  *  *  *  *  va *  kit  *  *  *  *  du  | 
dccB BAAG G4 z2g2  | gbba aggf gfed c2de  | 
w:  yar  *  *  *  en *  *  *  gel   Pek   |  bî *  *  *  *  *  va *  kit  *  *  *  *  du  | 
dccB BAAG G3c Bdc2  | c3d edcB c6z2  | 
w:  yar  *  *  *  en *  *  *  gel   SAZ  |  He *  le  *  sab *  ret   | 
d4 e2f2 gfed cBAG  | c3d edcB c6z2  | \
w:  kı rar sın  tel    |  He *  le  *  sab *  ret   | 
d4 e2f2 g6g2  | 
w:  kı rar sın  tel   Er  | 
gbba aggf gfed c2de  | dccB BAAG G4 z2g2  | 
w:  ken  *  *  *  *  *  ol *  maz  *  *  *  *  ak  |  şa *  *  *  ma  *  *  *  gel   Er  | 
gbba aggf gfed c2de  | dccB BAAG G8  | 
w:  ken  *  *  *  *  *  ol *  maz  *  *  *  *  ak  |  şa KARAR *  *  ma  *  *  *  gel    | 
|


